X:190
%%etbk:tnset id:59,pos:4,rep:3x,ant:
%%etbk:tnset id:182,pos:5,rep:3x,ant:
%%etbk:wsite http://www.thesession.org/tunes/display/188
%%etbk:color #ffffcc
%%etbk:pldat 2016-06-23T18:39,2016-06-22T15:36,2016-06-16T18:14,2016-05-05T14:39,2016-05-04T15:45,2016-05-02T19:04,2016-03-10T18:11,2016-03-08T17:44,2016-03-05T13:38,2016-02-26T17:19,2016-02-23T16:53,2016-02-10T16:38,2016-02-08T18:55,2015-11-04T16:37,2015-10-29T18:52,2015-10-27T16:28,2015-10-24T15:47,2015-10-20T16:12,2015-10-06T17:16,2015-09-30T16:32,2015-06-24T18:58,2015-06-21T15:53,2015-06-16T16:45,2015-03-13T18:02,2015-03-10T16:08,2015-03-04T15:24,2015-02-16T19:52,2015-02-12T19:29,2015-02-04T16:35,2014-11-06T18:37,2014-11-04T15:29,2014-10-29T15:24,2014-10-27T18:36,2014-10-23T19:12,2014-08-21T19:30,2014-08-20T19:02,2014-08-19T18:05,2014-06-23T18:18,2014-06-15T13:13,2014-06-11T16:12,2014-06-03T15:15,2014-05-28T16:38,2014-03-04T18:12,2014-02-25T18:08,2013-10-29T15:42,2013-10-27T14:34,2013-10-18T16:22,2013-10-15T18:05,2013-10-10T19:54
T: Glass Of Beer, The
Z: Piano Box Version by Martin Fleischmann
H: Created 2013-02-19 /  Last Modified 2015-02-04
M: 4/4
L: 1/8
R: reel
K: Bmin
|: "bm"!4!f!1!B!2!B!1!B !4!fB!5!aB | !4!f!1!B!2!B!1!B "f#m"!3!ee!2!de | "bm"!4!f!1!B !3!(3B!2!B!1!B !4!f2fe |1 !2!dfaf "f#m"!3!e{g}ede:|2 !2!dfaf "A"!3!e{f}ee2||
|: "D"!2!d3e !4!f2{g}fe | !2!def!2!d "A"!3!eAA!1!A | "D"!2!d!1!c!2!de !4!fgfe | !2!dfaf "A"!3!e{f}ee2 :|


